X: 1
T: Plane Tree, The
C: Undine Hornby
R: Jig
M: 6/8
L: 1/8
K: Emin
Z: ABC transcription by Verge Roller
r: 32
|: "Em" EGB EGB | "Am" cBA "Em" B3 | "C" cde "G" dcB | "Am" AGA "Em" B3 |
"Em" EGB EGB | "Am" cBA "Em" B3 | "C" cde "G" dcB | "D" AGF "Em" E3 :|
|: "C" efg "D" f2 e | "G" ded "Em" B3 | "C" cde "G" dcB | "Am" AGA "Em" B3 |
"C" efg "D" f2 e | "G" ded "Em" B3 | "C" cde "G" dcB | "D" AGF "Em" E3 :|
